X:1
T:The Heavenly Voice
T:The Heavenly Voice
T:Carl M. Frykman (1880-1930)
T:Nils Frykman, 1900, trans. Andrew Frykman
T:Public Domain Courtesy of the Cyber Hymnal™
C:Carl M. Frykman (1880-1930)
Z:Public Domain
Z:Courtesy of the Cyber Hymnal™
%%score 1 ( 2 3 )
L:1/8
Q:1/4=105
M:6/8
K:Bb
V:1 treble 
V:2 bass 
V:3 bass 
V:1
 [DF]2 [B,D]/[B,D]/ [B,D][CE][DF] | [EG]3 [DF]2 z | [CE]2 [A,C]/[A,C]/ [A,C][B,D][CE] | %3
w: 1.~List to the Gos- pel re-|sound- ing,|Beau- ti- ful mess- age of|
w: 2.~Why not, O why not, re-|pent- ing,|Turn from your per- i- lous|
w: 3.~Life, like the dew of the|morn- ing,|Van- ish- eth quick- ly a-|
w: 4.~Touched by the Spir- it so|ten- der,|Call- ing as ev- er be-|
 [B,D]3- [B,D]2 z | [DF]2 [B,D]/[B,D]/ [B,D][CE][DF] | [EG]3 [DF]2 z | %6
w: love; *|Je- sus, in mer- cy a-|bound- ing,|
w: course, *|End- ing in woe un- re-|lent- ing,|
w: way; *|Death bring- eth sor- row and|mourn- ing,|
w: fore, *|Will- ing- ly, free- ly sur-|ren- der,|
 [DB]2 [FA]/[FA]/ [FA][FB][Fc] | [FB]3- [FB]2 z ||"^Refrain" [Fd]2 [DB]/[DB]/ [DB][Ec][Fd] | %9
w: Call- eth for you from a-|bove. *||
w: An- guish, dis- grace and re-|morse? *||
w: Wail- ing for- ev- er and|aye. *||
w: O- pen, yes, o- pen your|door. *||
 [Fc]3- [Fc]2 z | [Ae]2 [Ac]/[Ac]/ [Ac][Bd][Fe] | [Fd]3- [Fd]2 z | %12
w: |||
w: |||
w: |||
w: |||
 [DF]2 [B,D]/[B,D]/ [B,D][CE][DF] | [EG]3 [DF]2 z | [DB]2 [FA]/[FA]/ [FA][FB][Fc] | [FB]3- [FB]2 |] %16
w: ||||
w: ||||
w: ||||
w: ||||
V:2
 [B,,B,]2 [B,,F,]/[B,,F,]/ [B,,F,][B,,B,][B,,B,] | [E,B,]3 [B,,B,]2 z | [F,A,]2 F,/F,/ F,F,F, | %3
w: ~ ~ ~ ~ ~ ~|~ ~|~ ~ ~ ~ ~ ~|
 [B,,F,]3- [B,,F,]2 z | [B,,B,]2 [B,,F,]/[B,,F,]/ [B,,F,][B,,B,][B,,B,] | [E,B,]3 [B,,B,]2 z | %6
w: ~ *|~ ~ ~ ~ ~ ~|~ ~|
 [F,B,]2 [F,C]/[F,C]/ [F,C][F,D][F,E] | [B,,D]3- [B,,D]2 z || B,2 B,/B,/ B,B,B, | %9
w: ~ ~ ~ ~ ~ ~|~ *|List to the heav- en- ly|
 [F,A,]3- [F,A,]2 z | [F,C]2 [F,F]/[F,F]/ [F,E][F,D][F,C] | B,3- B,2 z | %12
w: voice *|Ten- der- ly urg- ing your|choice; *|
 [B,,B,]2 [B,,F,]/[B,,F,]/ [B,,F,][B,,B,][B,,B,] | [E,B,]3 [B,,B,]2 z | %14
w: Yield to the love of your|Sav- ior,|
 [F,B,]2 [F,C]/[F,C]/ [F,C][F,D][F,E] | [B,,D]3- [B,,D]2 |] %16
w: List- en, be- lieve and re-|joice. *|
V:3
 x6 | x6 | x2 F,/F,/ F,F,F, | x6 | x6 | x6 | x6 | x6 || B,2 B,/B,/ B,B,B, | x6 | x6 | B,3- B,2 x | %12
 x6 | x6 | x6 | x5 |] %16

